assets/Thumbs up/Light/Flat/thumbs_up_flat_light.svg

<svg width="32" height="32" viewBox="0 0 32 32" fill="none" xmlns="http://www.w3.org/2000/svg">
<path d="M12.3125 5.53122C12.3125 2.63122 14.4375 1.94789 15.625 1.96872C18.0375 1.96872 18.7073 3.97771 18.9062 5.04681C19.1536 6.37617 18.9115 9.55588 18.8004 11.0156L18.7973 11.0573C18.956 11.0201 19.1274 10.9999 19.3125 10.9999H23.17C24.73 10.9999 26 12.2699 26 13.8299C26 14.636 25.7414 15.3646 25.2346 15.8807C26.2789 16.3414 27 17.3084 27 18.4237C27 19.4466 26.5373 20.3448 25.6357 20.8421C26.4591 21.353 27 22.2078 27 23.1737C27 24.2814 26.4574 25.2429 25.4024 25.7073C25.7767 26.0933 26 26.6677 26 27.5015C26 28.8805 25.0312 30.0031 23.17 30.0031H19.3125C19.2671 30.0031 19.2224 30.0021 19.1783 29.9999H16.0469C5.60938 30.1718 5 23.4062 5 20.6562C5 15.5001 7.29793 13.9674 9.34062 12.605C10.3064 11.9608 11.215 11.3547 11.7969 10.4218C12.285 9.63906 12.3125 8.92181 12.3125 5.53122Z" fill="#FFD7C2"/>
<path d="M19 11C17.9792 11.0312 15 11.5937 15 13.9687C15 15.2188 15.4688 15.9219 16.0313 16.3125C15.4688 16.5625 14.9688 17.4906 14.9688 18.6406C14.9688 19.9219 16.0313 20.8594 16.0313 20.8594C16.0313 20.8594 14.9688 21.8906 14.9688 23.125C14.9688 24.057 15.3774 24.7446 16.0313 25.2133C15.6771 25.413 14.9688 26.1062 14.9688 27.2812C14.9688 28.6824 16.277 29.856 18.8392 29.9611C17.5908 29.73 16.9844 28.5862 16.9844 27.5016C16.9844 27.1431 17.1185 26.5675 17.4514 26.0588H23C23.2761 26.0588 23.5 25.8349 23.5 25.5588C23.5 25.2826 23.2761 25.0588 23 25.0588H17.5889C17.1838 24.5287 16.9844 23.8413 16.9844 23.1738C16.9844 22.7584 17.1407 22.0855 17.5304 21.5H23C23.2761 21.5 23.5 21.2761 23.5 21C23.5 20.7239 23.2761 20.5 23 20.5H17.7507C17.2368 19.9509 16.9844 19.1748 16.9844 18.4238C16.9844 18.0665 17.1 17.5188 17.3803 17H23C23.2761 17 23.5 16.7761 23.5 16.5C23.5 16.2239 23.2761 16 23 16H17.8268C17.2634 15.4035 16.9844 14.5164 16.9844 13.83C16.9844 13.02 17.4266 11.2303 19.0002 11.0202L19 11Z" fill="#F1B99B"/>
</svg>

<svg xmlns="http://www.w3.org/2000/svg" width="32" height="32" fill="none"><path fill="#FFD7C2" d="M12.313 5.531c0-2.9 2.124-3.583 3.312-3.562 2.413 0 3.082 2.009 3.281 3.078.248 1.33.006 4.509-.106 5.969l-.003.041a2.25 2.25 0 0 1 .515-.057h3.858c1.56 0 2.83 1.27 2.83 2.83 0 .806-.259 1.535-.765 2.05 1.044.461 1.765 1.428 1.765 2.544 0 1.023-.463 1.92-1.364 2.418.823.511 1.364 1.366 1.364 2.332 0 1.107-.543 2.069-1.598 2.533.375.386.598.96.598 1.794 0 1.38-.969 2.502-2.83 2.502h-3.858c-.045 0-.09 0-.134-.003h-3.131C5.609 30.172 5 23.406 5 20.656c0-5.156 2.298-6.689 4.34-8.051.966-.644 1.875-1.25 2.457-2.183.488-.783.515-1.5.515-4.89Z"/><path fill="#F1B99B" d="M19 11c-1.02.031-4 .594-4 2.969 0 1.25.469 1.953 1.031 2.344-.562.25-1.062 1.178-1.062 2.328 0 1.28 1.062 2.218 1.062 2.218s-1.062 1.032-1.062 2.266c0 .932.408 1.62 1.062 2.088-.354.2-1.062.893-1.062 2.068 0 1.401 1.308 2.575 3.87 2.68-1.248-.231-1.855-1.375-1.855-2.46 0-.358.134-.934.467-1.442H23a.5.5 0 0 0 0-1h-5.411c-.405-.53-.605-1.218-.605-1.885 0-.416.157-1.088.546-1.674H23a.5.5 0 0 0 0-1h-5.25c-.513-.55-.766-1.325-.766-2.076 0-.357.116-.905.396-1.424H23a.5.5 0 0 0 0-1h-5.173c-.564-.597-.843-1.484-.843-2.17 0-.81.443-2.6 2.016-2.81V11Z"/></svg>
